{ "compressionlevel":-1,
 "height":20,
 "infinite":false,
 "layers":[
        {
         "draworder":"topdown",
         "id":1,
         "name":"objects",
         "objects":[
                {
                 "gid":33,
                 "height":96,
                 "id":1,
                 "name":"",
                 "rotation":0,
                 "type":"",
                 "visible":true,
                 "width":96,
                 "x":512,
                 "y":320
                }, 
                {
                 "gid":2,
                 "height":256,
                 "id":5,
                 "name":"",
                 "rotation":0,
                 "type":"",
                 "visible":true,
                 "width":512,
                 "x":512,
                 "y":128
                }, 
                {
                 "gid":2,
                 "height":1280,
                 "id":50,
                 "name":"",
                 "rotation":0,
                 "type":"",
                 "visible":true,
                 "width":256,
                 "x":128,
                 "y":640
                }, 
                {
                 "gid":2,
                 "height":1280,
                 "id":52,
                 "name":"",
                 "rotation":0,
                 "type":"",
                 "visible":true,
                 "width":256,
                 "x":896,
                 "y":640
                }, 
                {
                 "gid":2,
                 "height":256,
                 "id":53,
                 "name":"",
                 "rotation":0,
                 "type":"",
                 "visible":true,
                 "width":512,
                 "x":512,
                 "y":1152
                }, 
                {
                 "gid":29,
                 "height":96,
                 "id":54,
                 "name":"",
                 "rotation":0,
                 "type":"",
                 "visible":true,
                 "width":96,
                 "x":512,
                 "y":960
                }, 
                {
                 "gid":3,
                 "height":256,
                 "id":55,
                 "name":"",
                 "rotation":90,
                 "type":"",
                 "visible":true,
                 "width":64,
                 "x":384,
                 "y":736
                }, 
                {
                 "gid":3,
                 "height":256,
                 "id":56,
                 "name":"",
                 "rotation":90,
                 "type":"",
                 "visible":true,
                 "width":64,
                 "x":640,
                 "y":544
                }, 
                {
                 "gid":1,
                 "height":64,
                 "id":57,
                 "name":"",
                 "rotation":0,
                 "type":"",
                 "visible":true,
                 "width":64,
                 "x":480,
                 "y":544
                }, 
                {
                 "gid":1,
                 "height":64,
                 "id":58,
                 "name":"",
                 "rotation":0,
                 "type":"",
                 "visible":true,
                 "width":64,
                 "x":544,
                 "y":736
                }],
         "opacity":1,
         "type":"objectgroup",
         "visible":true,
         "x":0,
         "y":0
        }],
 "nextlayerid":2,
 "nextobjectid":59,
 "orientation":"orthogonal",
 "properties":[
        {
         "name":"background",
         "type":"string",
         "value":"brown"
        }, 
        {
         "name":"ballSize",
         "type":"string",
         "value":"small"
        }, 
        {
         "name":"edges",
         "type":"string",
         "value":"wall"
        }, 
        {
         "name":"mode",
         "type":"string",
         "value":"story"
        }, 
        {
         "name":"title",
         "type":"string",
         "value":"First roll"
        }],
 "renderorder":"right-down",
 "tiledversion":"1.11.2",
 "tileheight":64,
 "tilesets":[
        {
         "firstgid":1,
         "source":"..\/tiltball.tsj"
        }],
 "tilewidth":64,
 "type":"map",
 "version":"1.11",
 "width":16
}