{ "compressionlevel":-1,
 "height":20,
 "infinite":false,
 "layers":[
        {
         "draworder":"topdown",
         "id":1,
         "name":"objects",
         "objects":[
                {
                 "gid":2,
                 "height":384,
                 "id":83,
                 "name":"",
                 "rotation":0,
                 "type":"",
                 "visible":true,
                 "width":1024,
                 "x":512,
                 "y":192
                }, 
                {
                 "gid":2,
                 "height":384,
                 "id":84,
                 "name":"",
                 "rotation":0,
                 "type":"",
                 "visible":true,
                 "width":1024,
                 "x":512,
                 "y":1088
                }, 
                {
                 "gid":33,
                 "height":96,
                 "id":85,
                 "name":"",
                 "rotation":0,
                 "type":"",
                 "visible":true,
                 "width":96,
                 "x":64,
                 "y":448
                }, 
                {
                 "gid":37,
                 "height":70,
                 "id":99,
                 "name":"",
                 "rotation":0,
                 "type":"",
                 "visible":true,
                 "width":70,
                 "x":800,
                 "y":864
                }, 
                {
                 "gid":38,
                 "height":70,
                 "id":103,
                 "name":"",
                 "rotation":180,
                 "type":"",
                 "visible":true,
                 "width":70,
                 "x":800,
                 "y":416
                }, 
                {
                 "gid":40,
                 "height":70,
                 "id":109,
                 "name":"",
                 "rotation":90,
                 "type":"",
                 "visible":true,
                 "width":70,
                 "x":35,
                 "y":832
                }, 
                {
                 "gid":29,
                 "height":96,
                 "id":112,
                 "name":"",
                 "rotation":0,
                 "type":"",
                 "visible":true,
                 "width":96,
                 "x":960,
                 "y":640
                }, 
                {
                 "gid":39,
                 "height":256,
                 "id":116,
                 "name":"",
                 "rotation":0,
                 "type":"",
                 "visible":true,
                 "width":512,
                 "x":256,
                 "y":640
                }, 
                {
                 "gid":11,
                 "height":128,
                 "id":119,
                 "name":"",
                 "rotation":180,
                 "type":"",
                 "visible":true,
                 "width":128,
                 "x":704,
                 "y":448
                }, 
                {
                 "gid":11,
                 "height":128,
                 "id":120,
                 "name":"",
                 "rotation":270,
                 "type":"",
                 "visible":true,
                 "width":128,
                 "x":704,
                 "y":832
                }],
         "opacity":1,
         "type":"objectgroup",
         "visible":true,
         "x":0,
         "y":0
        }],
 "nextlayerid":2,
 "nextobjectid":122,
 "orientation":"orthogonal",
 "properties":[
        {
         "name":"background",
         "type":"string",
         "value":"brown"
        }, 
        {
         "name":"ballSize",
         "type":"string",
         "value":"small"
        }, 
        {
         "name":"edges",
         "type":"string",
         "value":"wall"
        }, 
        {
         "name":"mode",
         "type":"string",
         "value":"story"
        }, 
        {
         "name":"title",
         "type":"string",
         "value":"Avoid the hole"
        }],
 "renderorder":"right-down",
 "tiledversion":"1.11.2",
 "tileheight":64,
 "tilesets":[
        {
         "firstgid":1,
         "source":"..\/tiltball.tsj"
        }],
 "tilewidth":64,
 "type":"map",
 "version":"1.11",
 "width":16
}