{ "compressionlevel":-1,
 "height":20,
 "infinite":false,
 "layers":[
        {
         "draworder":"topdown",
         "id":1,
         "name":"objects",
         "objects":[
                {
                 "gid":33,
                 "height":96,
                 "id":16,
                 "name":"",
                 "rotation":0,
                 "type":"",
                 "visible":true,
                 "width":96,
                 "x":288,
                 "y":416
                }, 
                {
                 "gid":39,
                 "height":1280,
                 "id":18,
                 "name":"",
                 "rotation":0,
                 "type":"",
                 "visible":true,
                 "width":192,
                 "x":928,
                 "y":640
                }, 
                {
                 "gid":39,
                 "height":1280,
                 "id":19,
                 "name":"",
                 "rotation":0,
                 "type":"",
                 "visible":true,
                 "width":192,
                 "x":96,
                 "y":640
                }, 
                {
                 "gid":39,
                 "height":256,
                 "id":21,
                 "name":"",
                 "rotation":0,
                 "type":"",
                 "visible":true,
                 "width":640,
                 "x":512,
                 "y":1152
                }, 
                {
                 "gid":39,
                 "height":320,
                 "id":22,
                 "name":"",
                 "rotation":0,
                 "type":"",
                 "visible":true,
                 "width":640,
                 "x":512,
                 "y":160
                }, 
                {
                 "gid":39,
                 "height":64,
                 "id":23,
                 "name":"",
                 "rotation":0,
                 "type":"",
                 "visible":true,
                 "width":448,
                 "x":608,
                 "y":800
                }, 
                {
                 "gid":39,
                 "height":64,
                 "id":24,
                 "name":"",
                 "rotation":0,
                 "type":"",
                 "visible":true,
                 "width":448,
                 "x":416,
                 "y":544
                }, 
                {
                 "gid":29,
                 "height":96,
                 "id":27,
                 "name":"",
                 "rotation":0,
                 "type":"",
                 "visible":true,
                 "width":96,
                 "x":736,
                 "y":928
                }],
         "opacity":1,
         "type":"objectgroup",
         "visible":true,
         "x":0,
         "y":0
        }],
 "nextlayerid":2,
 "nextobjectid":28,
 "orientation":"orthogonal",
 "properties":[
        {
         "name":"background",
         "type":"string",
         "value":"brown"
        }, 
        {
         "name":"ballSize",
         "type":"string",
         "value":"small"
        }, 
        {
         "name":"edges",
         "type":"string",
         "value":"open"
        }, 
        {
         "name":"mode",
         "type":"string",
         "value":"story"
        }, 
        {
         "name":"title",
         "type":"string",
         "value":"The void"
        }],
 "renderorder":"right-down",
 "tiledversion":"1.11.2",
 "tileheight":64,
 "tilesets":[
        {
         "firstgid":1,
         "source":"..\/tiltball.tsj"
        }],
 "tilewidth":64,
 "type":"map",
 "version":"1.11",
 "width":16
}