{
 "compressionlevel": -1,
 "width": 9,
 "height": 9,
 "tilewidth": 128,
 "tileheight": 128,
 "infinite": false,
 "orientation": "orthogonal",
 "renderorder": "right-down",
 "type": "map",
 "version": "1.10",
 "tiledversion": "1.10.0",
 "nextlayerid": 5,
 "nextobjectid": 1,
 "properties": [
  {
   "name": "title",
   "type": "string",
   "value": "Duo 4"
  },
  {
   "name": "mode",
   "type": "string",
   "value": "coop"
  },
  {
   "name": "parMoves",
   "type": "int",
   "value": 45
  },
  {
   "name": "solution",
   "type": "string",
   "value": "1Dull2LL1rrr2r1Dulll2lllDurD1drdddrrr2DLuuull1LulDDrdL"
  },
  {
   "name": "seed",
   "type": "int",
   "value": 11
  },
  {
   "name": "metrics",
   "type": "string",
   "value": "{\"box_changes\": 5, \"box_lines\": 9, \"forced_ratio\": 0.0, \"mean_branching\": 5.333, \"moves\": 45, \"nodes\": 15, \"pushes\": 12, \"trap_density\": 0.0}"
  }
 ],
 "tilesets": [
  {
   "firstgid": 1,
   "source": "../sokoban.tsj"
  }
 ],
 "layers": [
  {
   "id": 1,
   "name": "floor",
   "type": "tilelayer",
   "width": 9,
   "height": 9,
   "opacity": 1,
   "visible": true,
   "x": 0,
   "y": 0,
   "data": [
    2,
    2,
    2,
    2,
    2,
    2,
    2,
    2,
    2,
    2,
    2,
    2,
    2,
    2,
    2,
    2,
    2,
    2,
    2,
    2,
    2,
    2,
    2,
    2,
    2,
    2,
    2,
    2,
    2,
    2,
    2,
    2,
    2,
    2,
    2,
    2,
    2,
    2,
    2,
    2,
    2,
    2,
    2,
    2,
    2,
    2,
    2,
    2,
    2,
    2,
    2,
    2,
    2,
    2,
    2,
    2,
    2,
    2,
    2,
    2,
    2,
    2,
    2,
    2,
    2,
    2,
    2,
    2,
    2,
    2,
    2,
    2,
    2,
    2,
    2,
    2,
    2,
    2,
    2,
    2,
    2
   ]
  },
  {
   "id": 2,
   "name": "goals",
   "type": "tilelayer",
   "width": 9,
   "height": 9,
   "opacity": 1,
   "visible": true,
   "x": 0,
   "y": 0,
   "data": [
    0,
    0,
    0,
    0,
    0,
    0,
    0,
    0,
    0,
    0,
    0,
    0,
    0,
    0,
    0,
    0,
    0,
    0,
    0,
    0,
    0,
    0,
    0,
    0,
    0,
    0,
    0,
    0,
    0,
    0,
    0,
    0,
    0,
    0,
    0,
    0,
    0,
    0,
    8,
    0,
    0,
    0,
    0,
    0,
    0,
    0,
    0,
    0,
    0,
    0,
    0,
    0,
    0,
    0,
    0,
    0,
    0,
    0,
    0,
    0,
    0,
    0,
    0,
    0,
    0,
    8,
    0,
    0,
    0,
    0,
    0,
    0,
    0,
    0,
    0,
    0,
    0,
    0,
    0,
    0,
    0
   ]
  },
  {
   "id": 3,
   "name": "walls",
   "type": "tilelayer",
   "width": 9,
   "height": 9,
   "opacity": 1,
   "visible": true,
   "x": 0,
   "y": 0,
   "data": [
    7,
    7,
    7,
    7,
    7,
    7,
    7,
    7,
    7,
    7,
    0,
    0,
    0,
    0,
    7,
    7,
    7,
    7,
    7,
    0,
    0,
    0,
    0,
    0,
    0,
    0,
    7,
    7,
    7,
    0,
    0,
    0,
    7,
    7,
    7,
    7,
    7,
    7,
    0,
    0,
    0,
    7,
    7,
    7,
    7,
    7,
    0,
    0,
    0,
    0,
    0,
    0,
    0,
    7,
    7,
    7,
    0,
    0,
    0,
    7,
    7,
    7,
    7,
    7,
    7,
    0,
    0,
    0,
    7,
    7,
    7,
    7,
    7,
    7,
    7,
    7,
    7,
    7,
    7,
    7,
    7
   ]
  },
  {
   "id": 4,
   "name": "things",
   "type": "tilelayer",
   "width": 9,
   "height": 9,
   "opacity": 1,
   "visible": true,
   "x": 0,
   "y": 0,
   "data": [
    0,
    0,
    0,
    0,
    0,
    0,
    0,
    0,
    0,
    0,
    0,
    0,
    29,
    0,
    0,
    0,
    0,
    0,
    0,
    0,
    0,
    24,
    0,
    0,
    24,
    30,
    0,
    0,
    0,
    0,
    0,
    0,
    0,
    0,
    0,
    0,
    0,
    0,
    0,
    0,
    0,
    0,
    0,
    0,
    0,
    0,
    0,
    0,
    0,
    0,
    0,
    0,
    0,
    0,
    0,
    0,
    0,
    0,
    0,
    0,
    0,
    0,
    0,
    0,
    0,
    0,
    0,
    0,
    0,
    0,
    0,
    0,
    0,
    0,
    0,
    0,
    0,
    0,
    0,
    0,
    0
   ]
  }
 ]
}
