{ "compressionlevel":-1,
 "height":7,
 "infinite":false,
 "layers":[
        {
         "data":[2, 2, 2, 2, 2, 2, 2,
            2, 2, 2, 2, 2, 2, 2,
            2, 2, 2, 2, 2, 2, 2,
            2, 2, 2, 2, 2, 2, 2,
            2, 2, 2, 2, 2, 2, 2,
            2, 2, 2, 2, 2, 2, 2,
            2, 2, 2, 2, 2, 2, 2],
         "height":7,
         "id":1,
         "name":"floor",
         "opacity":1,
         "type":"tilelayer",
         "visible":true,
         "width":7,
         "x":0,
         "y":0
        }, 
        {
         "data":[0, 0, 0, 0, 0, 0, 0,
            0, 12, 0, 0, 0, 0, 0,
            0, 0, 0, 0, 0, 18, 0,
            0, 18, 0, 0, 0, 0, 0,
            0, 0, 0, 0, 8, 0, 0,
            0, 0, 0, 0, 0, 0, 0,
            0, 0, 0, 0, 0, 0, 0],
         "height":7,
         "id":2,
         "name":"goals",
         "opacity":1,
         "type":"tilelayer",
         "visible":true,
         "width":7,
         "x":0,
         "y":0
        }, 
        {
         "data":[7, 7, 7, 7, 7, 7, 0,
            7, 0, 7, 0, 0, 7, 7,
            7, 0, 0, 0, 0, 0, 7,
            7, 0, 0, 0, 0, 0, 7,
            7, 0, 7, 0, 0, 0, 7,
            7, 0, 0, 0, 0, 0, 7,
            7, 7, 7, 7, 7, 7, 7],
         "height":7,
         "id":3,
         "name":"walls",
         "opacity":1,
         "type":"tilelayer",
         "visible":true,
         "width":7,
         "x":0,
         "y":0
        }, 
        {
         "data":[0, 0, 0, 0, 0, 0, 0,
            0, 29, 0, 0, 0, 0, 0,
            0, 0, 0, 31, 28, 0, 0,
            0, 0, 0, 24, 0, 25, 0,
            0, 25, 0, 0, 0, 0, 0,
            0, 0, 0, 0, 0, 0, 0,
            0, 0, 0, 0, 0, 0, 0],
         "height":7,
         "id":4,
         "name":"things",
         "opacity":1,
         "type":"tilelayer",
         "visible":true,
         "width":7,
         "x":0,
         "y":0
        }],
 "nextlayerid":5,
 "nextobjectid":1,
 "orientation":"orthogonal",
 "properties":[
        {
         "name":"metrics",
         "type":"string",
         "value":"{\"box_changes\": 5, \"box_lines\": 6, \"forced_ratio\": 0.0, \"mean_branching\": 4.5, \"moves\": 23, \"nodes\": 12, \"pushes\": 8, \"trap_density\": 0.445}"
        }, 
        {
         "name":"mode",
         "type":"string",
         "value":"story"
        }, 
        {
         "name":"parMoves",
         "type":"int",
         "value":23
        }, 
        {
         "name":"seed",
         "type":"int",
         "value":106
        }, 
        {
         "name":"solution",
         "type":"string",
         "value":"drdRdrrUuLLLrrDlddllUuU"
        }, 
        {
         "name":"title",
         "type":"string",
         "value":"Fit them in"
        }],
 "renderorder":"right-down",
 "tiledversion":"1.11.2",
 "tileheight":128,
 "tilesets":[
        {
         "firstgid":1,
         "source":"..\/sokoban.tsj"
        }],
 "tilewidth":128,
 "type":"map",
 "version":"1.11",
 "width":7
}