{ "compressionlevel":-1,
 "height":9,
 "infinite":false,
 "layers":[
        {
         "data":[2, 2, 2, 2, 2, 2, 2, 2, 2, 2, 2,
            2, 2, 2, 2, 2, 2, 2, 2, 2, 2, 2,
            2, 2, 2, 2, 2, 2, 2, 2, 2, 2, 2,
            2, 2, 2, 2, 2, 2, 2, 2, 2, 2, 2,
            2, 2, 2, 2, 2, 2, 2, 2, 2, 2, 2,
            2, 2, 2, 2, 2, 2, 2, 2, 2, 2, 2,
            2, 2, 2, 2, 2, 2, 2, 2, 2, 2, 2,
            2, 2, 2, 2, 2, 2, 2, 2, 2, 2, 2,
            2, 2, 2, 2, 2, 2, 2, 2, 2, 2, 2],
         "height":9,
         "id":1,
         "name":"floor",
         "opacity":1,
         "type":"tilelayer",
         "visible":true,
         "width":11,
         "x":0,
         "y":0
        }, 
        {
         "data":[0, 0, 0, 0, 0, 0, 0, 0, 0, 0, 0,
            0, 0, 8, 0, 0, 0, 0, 0, 0, 0, 0,
            0, 0, 0, 0, 0, 0, 0, 0, 0, 0, 0,
            0, 0, 0, 0, 0, 0, 0, 0, 0, 0, 0,
            0, 0, 0, 0, 0, 0, 0, 0, 0, 0, 0,
            0, 0, 0, 0, 0, 0, 0, 8, 0, 0, 0,
            0, 0, 0, 0, 0, 0, 0, 0, 0, 0, 0,
            0, 0, 8, 0, 0, 0, 0, 0, 0, 0, 0,
            0, 0, 0, 0, 0, 0, 0, 0, 0, 0, 0],
         "height":9,
         "id":2,
         "name":"goals",
         "opacity":1,
         "type":"tilelayer",
         "visible":true,
         "width":11,
         "x":0,
         "y":0
        }, 
        {
         "data":[0, 7, 7, 7, 7, 7, 7, 7, 7, 7, 0,
            7, 7, 0, 0, 0, 0, 7, 7, 0, 7, 7,
            7, 0, 0, 0, 0, 0, 0, 0, 0, 0, 7,
            7, 7, 7, 7, 7, 7, 7, 7, 7, 7, 7,
            7, 7, 7, 7, 7, 7, 7, 7, 7, 7, 7,
            7, 0, 7, 0, 0, 0, 0, 0, 0, 0, 7,
            7, 0, 0, 0, 0, 0, 0, 0, 0, 0, 7,
            7, 0, 0, 0, 0, 0, 0, 0, 0, 0, 7,
            7, 7, 7, 7, 7, 7, 7, 7, 7, 7, 7],
         "height":9,
         "id":3,
         "name":"walls",
         "opacity":1,
         "type":"tilelayer",
         "visible":true,
         "width":11,
         "x":0,
         "y":0
        }, 
        {
         "data":[0, 0, 0, 0, 0, 0, 0, 0, 0, 0, 0,
            0, 0, 29, 0, 24, 0, 0, 0, 0, 0, 0,
            0, 0, 0, 0, 0, 0, 0, 0, 0, 0, 0,
            0, 0, 0, 0, 0, 0, 0, 0, 0, 0, 0,
            0, 0, 0, 0, 0, 0, 0, 0, 0, 0, 0,
            0, 0, 0, 0, 0, 0, 0, 0, 0, 0, 0,
            0, 0, 24, 30, 24, 0, 0, 0, 0, 0, 0,
            0, 0, 0, 0, 0, 0, 0, 0, 0, 0, 0,
            0, 0, 0, 0, 0, 0, 0, 0, 0, 0, 0],
         "height":9,
         "id":4,
         "name":"things",
         "opacity":1,
         "type":"tilelayer",
         "visible":true,
         "width":11,
         "x":0,
         "y":0
        }],
 "nextlayerid":5,
 "nextobjectid":1,
 "orientation":"orthogonal",
 "properties":[
        {
         "name":"metrics",
         "type":"string",
         "value":"{\"box_changes\": 3, \"box_lines\": 6, \"forced_ratio\": 0.0, \"mean_branching\": 4.556, \"moves\": 40, \"nodes\": 10, \"pushes\": 9, \"trap_density\": 0.0}"
        }, 
        {
         "name":"mode",
         "type":"string",
         "value":"coop"
        }, 
        {
         "name":"parMoves",
         "type":"int",
         "value":40
        }, 
        {
         "name":"seed",
         "type":"int",
         "value":3
        }, 
        {
         "name":"solution",
         "type":"string",
         "value":"1drrru2dlluu1LL2dRdrrruullDurrddlUluRRRddllL"
        }, 
        {
         "name":"title",
         "type":"string",
         "value":"Split 1"
        }],
 "renderorder":"right-down",
 "tiledversion":"1.11.2",
 "tileheight":128,
 "tilesets":[
        {
         "firstgid":1,
         "source":"..\/sokoban.tsj"
        }],
 "tilewidth":128,
 "type":"map",
 "version":"1.11",
 "width":11
}