{ "compressionlevel":-1,
 "height":11,
 "infinite":false,
 "layers":[
        {
         "data":[2, 2, 2, 2, 2, 2, 2, 2, 2, 2, 2,
            2, 2, 2, 2, 2, 2, 2, 2, 2, 2, 2,
            2, 2, 2, 2, 2, 2, 2, 2, 2, 2, 2,
            2, 2, 2, 2, 2, 2, 2, 2, 2, 2, 2,
            2, 2, 2, 2, 2, 2, 2, 2, 2, 2, 2,
            2, 2, 2, 2, 2, 2, 2, 2, 2, 2, 2,
            2, 2, 2, 2, 2, 2, 2, 2, 2, 2, 2,
            2, 2, 2, 2, 2, 2, 2, 2, 2, 2, 2,
            2, 2, 2, 2, 2, 2, 2, 2, 2, 2, 2,
            2, 2, 2, 2, 2, 2, 2, 2, 2, 2, 2,
            2, 2, 2, 2, 2, 2, 2, 2, 2, 2, 2],
         "height":11,
         "id":1,
         "name":"floor",
         "opacity":1,
         "type":"tilelayer",
         "visible":true,
         "width":11,
         "x":0,
         "y":0
        }, 
        {
         "data":[0, 0, 0, 0, 0, 0, 0, 0, 0, 0, 0,
            0, 0, 0, 0, 0, 0, 18, 0, 8, 0, 0,
            0, 0, 0, 0, 0, 0, 0, 0, 0, 8, 0,
            0, 0, 0, 0, 0, 0, 0, 0, 0, 0, 0,
            0, 0, 0, 0, 0, 0, 0, 0, 0, 0, 0,
            0, 8, 0, 0, 8, 0, 0, 0, 0, 0, 0,
            0, 0, 0, 0, 0, 0, 0, 0, 0, 0, 0,
            0, 0, 0, 0, 0, 0, 0, 0, 0, 0, 0,
            0, 0, 0, 0, 0, 0, 0, 0, 0, 0, 0,
            0, 0, 0, 0, 0, 0, 0, 0, 0, 0, 0,
            0, 0, 0, 0, 0, 0, 0, 0, 0, 0, 0],
         "height":11,
         "id":2,
         "name":"goals",
         "opacity":1,
         "type":"tilelayer",
         "visible":true,
         "width":11,
         "x":0,
         "y":0
        }, 
        {
         "data":[0, 7, 7, 7, 7, 7, 7, 7, 7, 7, 0,
            0, 7, 0, 0, 0, 0, 0, 0, 0, 7, 7,
            0, 7, 7, 7, 7, 7, 7, 7, 0, 0, 7,
            0, 0, 0, 0, 0, 0, 0, 7, 0, 0, 7,
            7, 7, 7, 7, 7, 7, 7, 7, 0, 0, 7,
            7, 0, 0, 0, 0, 0, 0, 0, 0, 0, 7,
            7, 0, 0, 0, 0, 7, 7, 7, 0, 0, 7,
            7, 0, 0, 0, 0, 7, 7, 7, 0, 0, 7,
            7, 0, 7, 0, 0, 0, 0, 0, 0, 0, 7,
            7, 0, 0, 0, 0, 7, 7, 7, 7, 7, 7,
            7, 7, 7, 7, 7, 7, 0, 0, 0, 0, 0],
         "height":11,
         "id":3,
         "name":"walls",
         "opacity":1,
         "type":"tilelayer",
         "visible":true,
         "width":11,
         "x":0,
         "y":0
        }, 
        {
         "data":[0, 0, 0, 0, 0, 0, 0, 0, 0, 0, 0,
            0, 0, 29, 0, 28, 0, 0, 31, 0, 0, 0,
            0, 0, 0, 0, 0, 0, 0, 0, 24, 0, 0,
            0, 0, 0, 0, 0, 0, 0, 0, 0, 0, 0,
            0, 0, 0, 0, 0, 0, 0, 0, 0, 0, 0,
            0, 0, 0, 0, 0, 0, 0, 0, 0, 0, 0,
            0, 0, 0, 0, 0, 0, 0, 0, 0, 0, 0,
            0, 0, 0, 0, 0, 0, 0, 0, 24, 0, 0,
            0, 0, 0, 31, 24, 0, 0, 24, 0, 0, 0,
            0, 0, 0, 0, 0, 0, 0, 0, 0, 0, 0,
            0, 0, 0, 0, 0, 0, 0, 0, 0, 0, 0],
         "height":11,
         "id":4,
         "name":"things",
         "opacity":1,
         "type":"tilelayer",
         "visible":true,
         "width":11,
         "x":0,
         "y":0
        }],
 "nextlayerid":5,
 "nextobjectid":1,
 "orientation":"orthogonal",
 "properties":[
        {
         "name":"metrics",
         "type":"string",
         "value":"{\"box_changes\": 8, \"box_lines\": 14, \"forced_ratio\": 0.13, \"mean_branching\": 4.13, \"moves\": 104, \"nodes\": 27, \"pushes\": 23, \"trap_density\": 0.352}"
        }, 
        {
         "name":"mode",
         "type":"string",
         "value":"story"
        }, 
        {
         "name":"parMoves",
         "type":"int",
         "value":104
        }, 
        {
         "name":"seed",
         "type":"int",
         "value":303
        }, 
        {
         "name":"solution",
         "type":"string",
         "value":"rRRrrrDrddlUUddddrddlUruulllllddlddrUluuurrrrrrddlUddLLLLdllluuuurrrrrrRdrUUUdddddlllllUUdddlUUruLdlUruL"
        }, 
        {
         "name":"title",
         "type":"string",
         "value":"Hard 3"
        }],
 "renderorder":"right-down",
 "tiledversion":"1.11.2",
 "tileheight":128,
 "tilesets":[
        {
         "firstgid":1,
         "source":"..\/sokoban.tsj"
        }],
 "tilewidth":128,
 "type":"map",
 "version":"1.11",
 "width":11
}