{ "compressionlevel":-1,
 "height":10,
 "infinite":false,
 "layers":[
        {
         "data":[2, 2, 2, 2, 2, 2, 2, 2, 2, 2, 2,
            2, 2, 2, 2, 2, 2, 2, 2, 2, 2, 2,
            2, 2, 2, 2, 2, 2, 2, 2, 2, 2, 2,
            2, 2, 2, 2, 2, 2, 2, 2, 2, 2, 2,
            2, 2, 2, 2, 2, 2, 2, 2, 2, 2, 2,
            2, 2, 2, 2, 2, 2, 2, 2, 2, 2, 2,
            2, 2, 2, 2, 2, 2, 2, 2, 2, 2, 2,
            2, 2, 2, 2, 2, 2, 2, 2, 2, 2, 2,
            2, 2, 2, 2, 2, 2, 2, 2, 2, 2, 2,
            2, 2, 2, 2, 2, 2, 2, 2, 2, 2, 2],
         "height":10,
         "id":1,
         "name":"floor",
         "opacity":1,
         "type":"tilelayer",
         "visible":true,
         "width":11,
         "x":0,
         "y":0
        }, 
        {
         "data":[0, 0, 0, 0, 0, 0, 0, 0, 0, 0, 0,
            0, 0, 0, 0, 0, 0, 0, 0, 0, 0, 0,
            0, 0, 0, 0, 0, 0, 0, 0, 0, 0, 0,
            0, 0, 0, 0, 0, 0, 0, 0, 0, 0, 0,
            0, 0, 0, 0, 8, 0, 0, 0, 0, 0, 0,
            0, 0, 0, 0, 0, 0, 0, 0, 0, 0, 0,
            0, 0, 0, 8, 0, 0, 0, 0, 0, 0, 0,
            0, 0, 8, 0, 0, 0, 0, 0, 0, 0, 0,
            0, 8, 0, 0, 0, 0, 0, 0, 0, 0, 0,
            0, 0, 0, 0, 0, 0, 0, 0, 0, 0, 0],
         "height":10,
         "id":2,
         "name":"goals",
         "opacity":1,
         "type":"tilelayer",
         "visible":true,
         "width":11,
         "x":0,
         "y":0
        }, 
        {
         "data":[0, 0, 7, 7, 7, 7, 7, 0, 0, 0, 0,
            0, 0, 7, 0, 0, 0, 7, 7, 7, 7, 0,
            0, 0, 7, 0, 0, 0, 0, 0, 0, 7, 0,
            0, 0, 7, 0, 0, 0, 0, 0, 7, 7, 0,
            7, 7, 7, 0, 0, 0, 0, 0, 7, 7, 0,
            7, 0, 0, 0, 0, 7, 0, 0, 0, 7, 0,
            7, 0, 0, 0, 0, 0, 0, 0, 0, 7, 7,
            7, 0, 0, 0, 0, 0, 0, 0, 0, 0, 7,
            7, 0, 7, 0, 0, 7, 7, 7, 7, 7, 7,
            7, 7, 7, 7, 7, 7, 0, 0, 0, 0, 0],
         "height":10,
         "id":3,
         "name":"walls",
         "opacity":1,
         "type":"tilelayer",
         "visible":true,
         "width":11,
         "x":0,
         "y":0
        }, 
        {
         "data":[0, 0, 0, 0, 0, 0, 0, 0, 0, 0, 0,
            0, 0, 0, 0, 0, 0, 0, 0, 0, 0, 0,
            0, 0, 0, 31, 24, 0, 0, 24, 29, 0, 0,
            0, 0, 0, 0, 0, 0, 24, 24, 0, 0, 0,
            0, 0, 0, 0, 0, 0, 0, 0, 0, 0, 0,
            0, 0, 0, 0, 0, 0, 0, 0, 0, 0, 0,
            0, 0, 0, 0, 0, 0, 0, 31, 0, 0, 0,
            0, 0, 0, 0, 0, 0, 0, 0, 0, 0, 0,
            0, 0, 0, 0, 0, 0, 0, 0, 0, 0, 0,
            0, 0, 0, 0, 0, 0, 0, 0, 0, 0, 0],
         "height":10,
         "id":4,
         "name":"things",
         "opacity":1,
         "type":"tilelayer",
         "visible":true,
         "width":11,
         "x":0,
         "y":0
        }],
 "nextlayerid":5,
 "nextobjectid":1,
 "orientation":"orthogonal",
 "properties":[
        {
         "name":"metrics",
         "type":"string",
         "value":"{\"box_changes\": 18, \"box_lines\": 20, \"forced_ratio\": 0.034, \"mean_branching\": 8.966, \"moves\": 98, \"nodes\": 171, \"pushes\": 29, \"trap_density\": 0.0}"
        }, 
        {
         "name":"mode",
         "type":"string",
         "value":"story"
        }, 
        {
         "name":"parMoves",
         "type":"int",
         "value":98
        }, 
        {
         "name":"seed",
         "type":"int",
         "value":307
        }, 
        {
         "name":"solution",
         "type":"string",
         "value":"LLDllluurDurDlDurDurrDlllDurrDurDullldDuurrdLrDurDuullllddrDuluurrdrdDurrdLLLLrdLLLulDrrrurrrdLLLL"
        }, 
        {
         "name":"title",
         "type":"string",
         "value":"Hard 6"
        }],
 "renderorder":"right-down",
 "tiledversion":"1.11.2",
 "tileheight":128,
 "tilesets":[
        {
         "firstgid":1,
         "source":"..\/sokoban.tsj"
        }],
 "tilewidth":128,
 "type":"map",
 "version":"1.11",
 "width":11
}